dist/img/rocket.svg

<svg width="94" height="95" viewBox="0 0 94 95" fill="none" xmlns="http://www.w3.org/2000/svg">
<path fill-rule="evenodd" clip-rule="evenodd" d="M39.6223 61.0561L38.6444 62.1131C37.6665 63.1678 36.4391 63.9833 34.9794 64.553C33.5168 65.1247 31.8218 65.4448 29.9085 65.5165C29.7526 61.6925 30.6766 58.6545 32.6296 56.5448L33.6103 55.4878L39.6223 61.0561Z" fill="#33A853"/>
<path fill-rule="evenodd" clip-rule="evenodd" d="M85.5183 6.14237C85.3454 6.14237 85.1697 6.07859 85.0336 5.95019C84.7473 5.68233 84.7331 5.23392 85.0024 4.94849L87.8709 1.89349C88.1402 1.60805 88.588 1.59416 88.8715 1.86202C89.1578 2.13016 89.1719 2.57858 88.9055 2.86373L86.0342 5.91873C85.8953 6.06726 85.7082 6.14237 85.5183 6.14237Z" fill="black"/>
<path fill-rule="evenodd" clip-rule="evenodd" d="M91.9298 23.2062C91.8957 23.2062 91.8617 23.2034 91.8249 23.1983L87.6809 22.5787C87.2925 22.5208 87.0261 22.1603 87.0828 21.7731C87.1423 21.3859 87.5023 21.1195 87.8906 21.177L92.0346 21.7963C92.423 21.8542 92.6894 22.215 92.6299 22.6022C92.5789 22.9537 92.2756 23.2062 91.9298 23.2062Z" fill="black"/>
<path fill-rule="evenodd" clip-rule="evenodd" d="M69.8237 5.95642C69.5006 5.95642 69.2086 5.7342 69.1321 5.40597L68.1967 1.32091C68.1088 0.939394 68.3469 0.55929 68.7296 0.471705C69.1122 0.384119 69.4921 0.623066 69.5771 1.0043L70.5153 5.08935C70.6003 5.47088 70.3622 5.85098 69.9824 5.93856C69.9286 5.95075 69.8747 5.95642 69.8237 5.95642Z" fill="black"/>
<path fill-rule="evenodd" clip-rule="evenodd" d="M46.2238 61.7344L32.4482 48.9787L36.0707 42.348C39.9539 35.2383 44.7017 28.6359 50.2063 22.6915L51.0481 21.7802C56.7907 15.5778 64.5629 11.6339 72.9586 10.6605L79.9088 9.85495C80.8271 9.74865 81.6208 10.4856 81.5868 11.408L81.3175 18.3989C80.9915 26.8448 77.6553 34.8964 71.9127 41.0986L71.0709 42.0098C65.5663 47.9543 59.3474 53.1955 52.5589 57.6139L46.2238 61.7344Z" fill="#33A853"/>
<path fill-rule="evenodd" clip-rule="evenodd" d="M79.5773 28.2903C78.9055 28.2903 77.8908 27.724 76.2326 26.4817C74.6481 25.2932 72.6271 23.5774 70.5466 21.6503C68.4661 19.7228 66.5982 17.841 65.2915 16.3512C63.3385 14.1245 62.8623 13.0987 63.4803 12.4314C63.7467 12.1446 64.1946 12.127 64.4837 12.3929C64.6963 12.5893 64.7586 12.8852 64.6707 13.1423C64.9315 13.8742 67.1311 16.555 71.5103 20.6095C75.8868 24.6639 78.7298 26.6497 79.4781 26.8521C79.7275 26.7453 80.028 26.7869 80.2405 26.9834C80.5297 27.2492 80.5467 27.6976 80.2802 27.9845C80.0931 28.1855 79.8692 28.2901 79.5773 28.2903Z" fill="black"/>
<path fill-rule="evenodd" clip-rule="evenodd" d="M61.4933 40.9497C59.0641 43.5716 54.9711 43.7289 52.3492 41.3014C49.7273 38.874 49.5714 34.781 51.9978 32.1594C54.4269 29.5375 58.5199 29.3802 61.1418 31.8076C63.7637 34.2348 63.9196 38.3281 61.4933 40.9497Z" fill="black"/>
<path fill-rule="evenodd" clip-rule="evenodd" d="M56.7511 30.7938C56.6746 30.7938 56.6009 30.7952 56.5243 30.7981C54.9852 30.8573 53.5651 31.5118 52.5192 32.6408C51.4733 33.77 50.9291 35.2386 50.9886 36.7763C51.0481 38.3137 51.7029 39.736 52.831 40.7817C53.962 41.827 55.4331 42.3704 56.9665 42.3112C58.5056 42.2519 59.9257 41.5974 60.9716 40.4685V40.4682C62.0176 39.3395 62.5618 37.8707 62.5023 36.3332C62.4427 34.7955 61.788 33.3729 60.6599 32.3276C59.5856 31.3338 58.2052 30.7938 56.7511 30.7938ZM56.7398 43.7326C54.9257 43.7326 53.2052 43.06 51.8701 41.8216C50.4614 40.5189 49.6479 38.7465 49.5742 36.8304C49.4977 34.9149 50.1751 33.0849 51.479 31.6779C52.78 30.2711 54.5544 29.4557 56.4705 29.382C58.3838 29.3097 60.2148 29.9851 61.6236 31.2876C63.0295 32.59 63.843 34.3627 63.9167 36.2785C63.9932 38.1944 63.3158 40.0246 62.0119 41.4313V41.431C60.7109 42.8381 58.9365 43.6536 57.0204 43.7273C56.9268 43.7309 56.8333 43.7326 56.7398 43.7326Z" fill="black"/>
<path fill-rule="evenodd" clip-rule="evenodd" d="M30.2146 48.6108C30.1352 48.6108 30.0502 48.5969 29.9708 48.5671L21.3058 45.3795C19.9481 44.988 19.1034 43.604 19.3841 42.2139C19.591 41.1796 20.3875 40.3489 21.4135 40.0977L36.0083 36.5209C38.3779 35.9395 40.8637 36.583 42.6551 38.2411C42.9414 38.507 42.9584 38.9557 42.6948 39.2426C42.4284 39.53 41.9805 39.547 41.6914 39.2811C40.2515 37.9472 38.2532 37.4299 36.3456 37.8973L21.7508 41.4741C21.2576 41.5952 20.8722 41.9951 20.773 42.4934C20.6369 43.1677 21.0507 43.8392 21.714 44.0218C21.7338 44.0272 21.7508 44.0331 21.7707 44.0399L30.4612 47.2372C30.8268 47.3721 31.0168 47.7794 30.8807 48.1468C30.7758 48.4334 30.5037 48.6108 30.2146 48.6108Z" fill="black"/>
<path fill-rule="evenodd" clip-rule="evenodd" d="M53.2136 74.3217C52.0968 74.3217 51.0537 73.6321 50.6484 72.5448L46.836 64.225C46.6744 63.8693 46.8303 63.4486 47.1846 63.2857C47.5418 63.1227 47.9613 63.2791 48.1257 63.6349L51.9466 71.9799C51.9551 71.9977 51.9636 72.0161 51.9692 72.0348C52.2017 72.682 52.9018 73.0428 53.5651 72.8554C54.0554 72.7171 54.4239 72.3041 54.5061 71.803L56.9523 56.9753C57.2697 55.0382 56.6008 53.0852 55.1609 51.7513C54.8746 51.4854 54.8576 51.037 55.1212 50.7499C55.3876 50.463 55.8355 50.4452 56.1246 50.7113C57.9131 52.3695 58.7465 54.7975 58.3497 57.206L55.9063 72.0334C55.7334 73.0745 54.9653 73.9322 53.9505 74.2191C53.7068 74.2885 53.4573 74.3217 53.2136 74.3217Z" fill="black"/>
<path fill-rule="evenodd" clip-rule="evenodd" d="M33.8768 69.5749C33.565 69.5749 33.2787 69.3655 33.1937 69.0483C33.0916 68.6699 33.3184 68.2819 33.6954 68.1812C36.9352 67.3207 40.0077 65.8439 42.8309 63.792C43.1455 63.5619 43.5905 63.6319 43.8201 63.9485C44.0497 64.2651 43.9788 64.7081 43.6642 64.9383C40.6994 67.0934 37.468 68.6455 34.061 69.5508C33.9986 69.5673 33.9391 69.5749 33.8768 69.5749Z" fill="black"/>
<path fill-rule="evenodd" clip-rule="evenodd" d="M26.5696 70.5525C26.2096 70.5525 25.8638 70.4176 25.5973 70.1712C25.3281 69.9204 25.1665 69.5797 25.1438 69.2121C24.7413 62.8175 26.1387 57.1179 29.4097 51.7879C29.6138 51.454 30.0503 51.3497 30.3848 51.5547C30.7164 51.7593 30.8213 52.1958 30.6172 52.5292C27.5049 57.602 26.1756 63.0301 26.5582 69.1236C27.5304 69.1213 28.4857 69.0649 29.4069 68.9672C29.798 68.9266 30.1467 69.2084 30.1864 69.5975C30.2289 69.9867 29.9454 70.3356 29.5571 70.3767C28.5905 70.4788 27.5928 70.5377 26.5894 70.5522C26.5837 70.5525 26.5752 70.5525 26.5696 70.5525Z" fill="black"/>
<path fill-rule="evenodd" clip-rule="evenodd" d="M11.8558 53.2185C11.6291 53.2185 11.408 53.1108 11.2691 52.9104C11.048 52.5875 11.133 52.1465 11.4533 51.9254L17.2215 47.9752C17.5446 47.7542 17.9868 47.8369 18.2079 48.1595C18.429 48.4823 18.3468 48.9234 18.0236 49.1445L12.2555 53.0946C12.1336 53.1785 11.9947 53.2185 11.8558 53.2185Z" fill="#33A853"/>
<path fill-rule="evenodd" clip-rule="evenodd" d="M42.8735 84.7725C42.7488 84.7725 42.624 84.7402 42.5107 84.6728C42.1734 84.4726 42.0628 84.0378 42.2641 83.7014L44.7471 79.5293C44.9483 79.1931 45.382 79.0829 45.7193 79.2827C46.0538 79.4828 46.1643 79.9176 45.9659 80.2541L43.4829 84.4262C43.3497 84.6489 43.1144 84.7725 42.8735 84.7725Z" fill="#33A853"/>
<path fill-rule="evenodd" clip-rule="evenodd" d="M21.4505 55.4741C21.2776 55.4741 21.1047 55.4117 20.9687 55.2856C20.6824 55.0197 20.6626 54.5713 20.929 54.2842L23.9647 51.0055C24.2312 50.7187 24.679 50.7014 24.9681 50.967C25.2544 51.2329 25.2714 51.6813 25.005 51.9687L21.9693 55.247C21.8304 55.3978 21.6405 55.4741 21.4505 55.4741Z" fill="#33A853"/>
<path fill-rule="evenodd" clip-rule="evenodd" d="M33.877 84.4301C33.7211 84.4301 33.5623 84.3777 33.4291 84.27C33.1258 84.0222 33.0805 83.5755 33.3299 83.2728L36.2778 79.6696C36.5244 79.3666 36.9722 79.3221 37.2727 79.5698C37.576 79.8176 37.6213 80.264 37.3747 80.567L34.4268 84.1702C34.2851 84.3414 34.0839 84.4301 33.877 84.4301Z" fill="#33A853"/>
<path fill-rule="evenodd" clip-rule="evenodd" d="M41.3826 75.2556C41.2239 75.2556 41.0651 75.2032 40.9348 75.0955C40.6315 74.8477 40.5861 74.4013 40.8327 74.0983L44.8407 69.1989C45.0901 68.8959 45.5351 68.8514 45.8384 69.0991C46.1417 69.3469 46.187 69.7933 45.9376 70.0963L41.9297 74.9957C41.7908 75.1669 41.5867 75.2556 41.3826 75.2556Z" fill="#33A853"/>
<path fill-rule="evenodd" clip-rule="evenodd" d="M10.2316 64.6387C10.0729 64.6387 9.91132 64.5857 9.78093 64.4766C9.47764 64.2277 9.43513 63.781 9.68456 63.4791C10.6284 62.336 11.1472 60.8884 11.1472 59.4037C11.1472 55.8716 8.27299 52.9981 4.7384 52.9981C3.45438 52.9981 2.21571 53.3762 1.15561 54.0919C0.832484 54.311 0.390305 54.2257 0.17205 53.9014C-0.046205 53.5771 0.0388294 53.1367 0.36196 52.9176C1.65732 52.0431 3.17093 51.5808 4.7384 51.5808C9.05531 51.5808 12.5644 55.0902 12.5644 59.4037C12.5644 61.2169 11.9295 62.9845 10.7787 64.381C10.6369 64.5508 10.4357 64.6387 10.2316 64.6387Z" fill="black"/>
<path fill-rule="evenodd" clip-rule="evenodd" d="M33.242 90.9879C32.9642 90.9879 32.7034 90.8257 32.5872 90.5553C32.0458 89.2758 30.7987 88.4493 29.4069 88.4493C28.3412 88.4493 27.3519 88.9306 26.6915 89.7696C26.4733 90.0494 26.0793 90.1234 25.7731 89.9417C25.467 89.7603 25.3423 89.3799 25.484 89.0531C25.844 88.214 26.0254 87.3223 26.0254 86.4025C26.0254 84.2616 24.9908 82.2288 23.2618 80.9646C22.7204 80.5706 22.4256 79.9544 22.471 79.3155C22.4965 78.9705 22.4851 78.6182 22.437 78.2389C22.1365 75.879 20.0645 74.1017 17.6183 74.1017C17.6155 74.1017 17.6127 74.1017 17.607 74.1017C17.1365 74.1017 16.7283 73.8163 16.5668 73.3741C16.4052 72.9334 16.5327 72.4535 16.8927 72.1519C17.9698 71.2463 18.5877 69.9217 18.5877 68.5173C18.5877 68.4294 18.5849 68.3421 18.5792 68.2553C18.5084 66.9614 17.8961 65.8015 16.8502 64.9906C15.7674 64.1513 14.3757 63.8239 13.035 64.0921L10.3706 64.6249C9.98509 64.7012 9.61377 64.4526 9.53724 64.0688C9.46071 63.685 9.71015 63.3117 10.0928 63.2349L12.7572 62.702C14.5033 62.3534 16.3116 62.7788 17.7175 63.8707C19.0724 64.9223 19.9029 66.4926 19.9936 68.1797C19.9993 68.2919 20.005 68.4042 20.005 68.5173C20.005 70.0921 19.4069 71.5893 18.344 72.7253C21.1784 73.047 23.48 75.231 23.8429 78.0592C23.9024 78.5326 23.9166 78.9765 23.8854 79.4164C23.874 79.5652 23.9534 79.716 24.098 79.82C26.1926 81.3501 27.4426 83.811 27.4426 86.4025C27.4426 86.7634 27.42 87.1208 27.3718 87.4737C28.001 87.1854 28.6927 87.0321 29.4069 87.0321C31.3684 87.0321 33.1286 88.1982 33.8939 90.0029C34.047 90.3634 33.8769 90.7793 33.5169 90.9317C33.4262 90.97 33.3327 90.9879 33.242 90.9879Z" fill="black"/>
<path fill-rule="evenodd" clip-rule="evenodd" d="M44.7216 93.6963C44.679 93.6963 44.6337 93.6921 44.5912 93.6842C44.2057 93.6122 43.9534 93.242 44.0243 92.8573C44.081 92.5489 44.1121 92.232 44.1121 91.916C44.1121 89.1136 41.8304 86.8335 39.0271 86.8335C36.6234 86.8335 34.5288 88.5399 34.0497 90.8911C33.9704 91.2743 33.5962 91.5223 33.2136 91.4429C32.8281 91.3644 32.5815 90.9903 32.6608 90.6068C33.2759 87.5991 35.9545 85.4163 39.0271 85.4163C42.6127 85.4163 45.5294 88.3321 45.5294 91.916C45.5294 92.3194 45.4897 92.7235 45.416 93.1178C45.3536 93.4582 45.056 93.6963 44.7216 93.6963Z" fill="black"/>
</svg>

<svg width="94" height="95" fill="none" xmlns="http://www.w3.org/2000/svg"><path fill-rule="evenodd" clip-rule="evenodd" d="M39.622 61.056l-.978 1.057c-.977 1.055-2.205 1.87-3.665 2.44-1.462.572-3.157.892-5.07.963-.156-3.824.768-6.862 2.72-8.971l.981-1.057 6.012 5.568z" fill="#33A853"/><path fill-rule="evenodd" clip-rule="evenodd" d="M85.518 6.142a.707.707 0 01-.516-1.194l2.869-3.055a.71.71 0 011.035.97L86.034 5.92a.702.702 0 01-.516.223zm6.412 17.064a.756.756 0 01-.105-.008l-4.144-.62a.71.71 0 01-.598-.805.711.711 0 01.808-.596l4.144.62a.706.706 0 01.595.805.707.707 0 01-.7.604zM69.824 5.956a.712.712 0 01-.692-.55l-.935-4.085a.708.708 0 111.38-.317l.938 4.085a.712.712 0 01-.691.867z" fill="#000"/><path fill-rule="evenodd" clip-rule="evenodd" d="M46.224 61.734L32.448 48.98l3.623-6.631a98.234 98.234 0 0114.135-19.656l.842-.912a35.42 35.42 0 0121.91-11.12l6.95-.805a1.506 1.506 0 011.679 1.553l-.27 6.99a35.424 35.424 0 01-9.404 22.7l-.842.912a98.348 98.348 0 01-18.512 15.604l-6.335 4.12z" fill="#33A853"/><path fill-rule="evenodd" clip-rule="evenodd" d="M79.577 28.29c-.671 0-1.686-.566-3.344-1.808-1.585-1.189-3.606-2.905-5.686-4.832s-3.949-3.809-5.255-5.299c-1.953-2.226-2.43-3.252-1.812-3.92a.711.711 0 011.004-.038.707.707 0 01.187.75c.26.731 2.46 3.412 6.84 7.466 4.376 4.055 7.219 6.04 7.967 6.243a.71.71 0 01.802 1.133.909.909 0 01-.703.305zM61.493 40.95a6.47 6.47 0 11-9.496-8.79 6.47 6.47 0 019.496 8.79z" fill="#000"/><path fill-rule="evenodd" clip-rule="evenodd" d="M56.751 30.794a5.72 5.72 0 00-4.232 1.847 5.721 5.721 0 00-1.53 4.135 5.729 5.729 0 001.842 4.006 5.733 5.733 0 004.136 1.53 5.721 5.721 0 004.005-1.843 5.72 5.72 0 001.53-4.136 5.728 5.728 0 00-1.842-4.005 5.724 5.724 0 00-3.909-1.534zm-.011 12.939a7.119 7.119 0 01-4.87-1.911 7.124 7.124 0 01-2.296-4.992 7.114 7.114 0 011.905-5.152 7.129 7.129 0 014.992-2.296 7.145 7.145 0 015.153 1.906 7.131 7.131 0 012.293 4.99 7.113 7.113 0 01-1.905 5.153 7.128 7.128 0 01-5.272 2.302zM30.215 48.61a.702.702 0 01-.244-.043l-8.665-3.188a2.742 2.742 0 01-1.922-3.165 2.741 2.741 0 012.03-2.116l14.594-3.577a7.227 7.227 0 016.647 1.72.712.712 0 01.04 1.002.71.71 0 01-1.004.038 5.81 5.81 0 00-5.345-1.384L21.75 41.474a1.321 1.321 0 00-.978 1.02 1.32 1.32 0 00.941 1.528c.02.005.037.011.057.018l8.69 3.197a.709.709 0 01-.246 1.374zm22.999 25.712c-1.117 0-2.16-.69-2.566-1.777l-3.812-8.32a.71.71 0 01.349-.94.71.71 0 01.94.35l3.822 8.345a.39.39 0 01.022.055 1.319 1.319 0 001.596.82c.49-.138.859-.55.941-1.052l2.446-14.828a5.82 5.82 0 00-1.791-5.224.712.712 0 01-.04-1.001.711.711 0 011.004-.039 7.233 7.233 0 012.225 6.495l-2.444 14.827a2.749 2.749 0 01-1.956 2.186c-.243.07-.493.103-.736.103zm-19.337-4.747a.71.71 0 01-.182-1.394c3.24-.86 6.313-2.337 9.136-4.389a.708.708 0 11.833 1.146c-2.965 2.155-6.196 3.707-9.603 4.613a.707.707 0 01-.184.024zm-7.307.977a1.43 1.43 0 01-1.426-1.34c-.403-6.395.995-12.094 4.266-17.424a.708.708 0 111.207.741c-3.112 5.073-4.441 10.501-4.059 16.595a27.685 27.685 0 002.849-.157.708.708 0 11.15 1.41 33.09 33.09 0 01-2.968.175h-.02z" fill="#000"/><path fill-rule="evenodd" clip-rule="evenodd" d="M11.856 53.218a.711.711 0 01-.587-.308.71.71 0 01.184-.985l5.768-3.95a.708.708 0 11.802 1.17l-5.768 3.95a.701.701 0 01-.4.123zm31.017 31.554a.707.707 0 01-.61-1.071l2.484-4.172a.71.71 0 011.219.725l-2.483 4.172a.71.71 0 01-.61.346zM21.45 55.474a.709.709 0 01-.522-1.19l3.037-3.279a.71.71 0 111.04.963l-3.036 3.279a.703.703 0 01-.518.227zM33.877 84.43a.707.707 0 01-.547-1.157l2.948-3.603a.71.71 0 011.097.897l-2.948 3.603a.709.709 0 01-.55.26zm7.506-9.174a.71.71 0 01-.55-1.157l4.008-4.9a.71.71 0 011.097.897l-4.008 4.9a.704.704 0 01-.547.26z" fill="#33A853"/><path fill-rule="evenodd" clip-rule="evenodd" d="M10.232 64.639a.707.707 0 01-.547-1.16 6.414 6.414 0 001.462-4.075 6.414 6.414 0 00-6.409-6.406 6.378 6.378 0 00-3.582 1.094.708.708 0 01-.794-1.174 7.793 7.793 0 014.376-1.337c4.317 0 7.826 3.51 7.826 7.823 0 1.813-.634 3.58-1.785 4.977a.71.71 0 01-.547.258z" fill="#000"/><path fill-rule="evenodd" clip-rule="evenodd" d="M33.242 90.988a.711.711 0 01-.655-.433 3.445 3.445 0 00-3.18-2.106 3.436 3.436 0 00-2.715 1.32.708.708 0 01-1.208-.716c.36-.839.541-1.73.541-2.65a6.761 6.761 0 00-2.763-5.438 1.875 1.875 0 01-.791-1.65 5.346 5.346 0 00-.034-1.076c-.3-2.36-2.373-4.137-4.819-4.137h-.011c-.47 0-.879-.286-1.04-.728a1.09 1.09 0 01.326-1.222 4.74 4.74 0 001.686-3.897c-.07-1.294-.683-2.453-1.729-3.264a4.717 4.717 0 00-3.815-.899l-2.664.533a.708.708 0 11-.278-1.39l2.664-.533a6.126 6.126 0 014.96 1.169 5.86 5.86 0 012.288 4.646 6.149 6.149 0 01-1.661 4.208c2.834.322 5.136 2.506 5.499 5.334.06.474.074.918.042 1.357-.011.15.068.3.213.404a8.179 8.179 0 013.274 7.654 4.878 4.878 0 012.035-.442 4.864 4.864 0 014.487 2.97.709.709 0 01-.652.986z" fill="#000"/><path fill-rule="evenodd" clip-rule="evenodd" d="M44.722 93.696a.71.71 0 01-.697-.839 5.09 5.09 0 00-4.997-6.024 5.094 5.094 0 00-4.978 4.058.708.708 0 01-1.39-.284c.616-3.008 3.295-5.19 6.367-5.19a6.508 6.508 0 016.502 6.499c0 .403-.04.808-.113 1.202a.707.707 0 01-.694.578z" fill="#000"/></svg>
